ui/StatusQ/src/assets/img/icons/communities/backup-community.svg

<svg fill="none" height="40" viewBox="0 0 41 40" width="41" xmlns="http://www.w3.org/2000/svg"><g fill="#4360df"><rect fill-opacity=".1" height="40" rx="20" width="40" x=".5"/><g clip-rule="evenodd" fill-rule="evenodd"><path d="m17.8561 24.8391c0 1.1926-.9715 2.1594-2.17 2.1594-1.1984 0-2.17-.9668-2.17-2.1594s.9716-2.1594 2.17-2.1594c1.1985 0 2.17.9668 2.17 2.1594zm-1.508 0c0 .3638-.2964.6587-.662.6587-.3655 0-.6619-.2949-.6619-.6587s.2964-.6587.6619-.6587c.3656 0 .662.2949.662.6587z"/><path d="m25.6478 19.0812c-.0473.1918-.2036.338-.3989.3731l-.9687.1739c-.2191.0393-.3861.2174-.4104.4376l-.1561 1.4119c-.013.1178-.0676.2272-.1541.3086l-.9076.8549c-.1253.118-.1795.2914-.154.4611.0439.2919.0666.5907.0666.8948 0 3.3153-2.7008 6.0029-6.0323 6.0029-3.3316 0-6.0323-2.6876-6.0323-6.0029 0-3.3154 2.7007-6.003 6.0323-6.003.696 0 1.3644.1173 1.9865.3331.1902.066.4036.0262.5473-.1143l8.2481-8.0694c.0941-.092.2206-.1435.3525-.1435h2.3304c.3193 0 .5576.2923.492.6032l-.8236 3.8974c-.036.1705-.1586.3101-.3236.3684l-.8895.3146c-.1486.0526-.2638.1715-.3111.3212l-.4005 1.2669c-.0506.1599-.1784.284-.3403.3305l-1.0814.3103c-.1729.0496-.306.1875-.3489.3614zm-4.5913 4.9159c0-.3473-.0395-.6854-.1143-1.01l-.0093-.0276c-.057-.1681-.1213-.3331-.1925-.4946-.0125-.0283-.0061-.0614.0163-.0829l1.4528-1.3904c.0294-.0277.0479-.0648.0523-.1048l.2321-2.099c.0243-.2202.1913-.3982.4104-.4376l1.1133-.1998c.1953-.0351.3517-.1813.399-.3731l.2971-1.2047c.0429-.174.1759-.3118.3489-.3614l1.1423-.3278c.1619-.0465.2897-.1706.3402-.3305l.3831-1.2117c.0473-.1498.1626-.2687.3112-.3213l.8007-.2832c.165-.0583.2876-.1979.3236-.3684l.2896-1.3703c.0541-.2563-.1424-.4973-.4056-.4973-.1087 0-.213.0425-.2905.1184l-7.7699 7.6021-1.0886 1.0622c-.0019.0018-.0049.0021-.0071.0006-.7279-.4978-1.6094-.7891-2.5593-.7891-2.4987 0-4.5242 2.0157-4.5242 4.5022s2.0255 4.5022 4.5242 4.5022c2.4986 0 4.5242-2.0157 4.5242-4.5022z"/></g></g></svg>

<svg width="41" height="40" viewBox="0 0 41 40" fill="none" xmlns="http://www.w3.org/2000/svg">
<rect x="0.5" width="40" height="40" rx="20" fill="#4360DF" fill-opacity="0.1"/>
<path fill-rule="evenodd" clip-rule="evenodd" d="M17.8561 24.8391C17.8561 26.0317 16.8846 26.9985 15.6861 26.9985C14.4877 26.9985 13.5161 26.0317 13.5161 24.8391C13.5161 23.6465 14.4877 22.6797 15.6861 22.6797C16.8846 22.6797 17.8561 23.6465 17.8561 24.8391ZM16.3481 24.8391C16.3481 25.2029 16.0517 25.4978 15.6861 25.4978C15.3206 25.4978 15.0242 25.2029 15.0242 24.8391C15.0242 24.4753 15.3206 24.1804 15.6861 24.1804C16.0517 24.1804 16.3481 24.4753 16.3481 24.8391Z" fill="#4360DF"/>
<path fill-rule="evenodd" clip-rule="evenodd" d="M25.6478 19.0812C25.6005 19.273 25.4442 19.4192 25.2489 19.4543L24.2802 19.6282C24.0611 19.6675 23.8941 19.8456 23.8698 20.0658L23.7137 21.4777C23.7007 21.5955 23.6461 21.7049 23.5596 21.7863L22.652 22.6412C22.5267 22.7592 22.4725 22.9326 22.498 23.1023C22.5419 23.3942 22.5646 23.693 22.5646 23.9971C22.5646 27.3124 19.8638 30 16.5323 30C13.2007 30 10.5 27.3124 10.5 23.9971C10.5 20.6817 13.2007 17.9941 16.5323 17.9941C17.2283 17.9941 17.8967 18.1114 18.5188 18.3272C18.709 18.3932 18.9224 18.3534 19.0661 18.2129L27.3142 10.1435C27.4083 10.0515 27.5348 10 27.6667 10H29.9971C30.3164 10 30.5547 10.2923 30.4891 10.6032L29.6655 14.5006C29.6295 14.6711 29.5069 14.8107 29.3419 14.869L28.4524 15.1836C28.3038 15.2362 28.1886 15.3551 28.1413 15.5048L27.7408 16.7717C27.6902 16.9316 27.5624 17.0557 27.4005 17.1022L26.3191 17.4125C26.1462 17.4621 26.0131 17.6 25.9702 17.7739L25.6478 19.0812ZM21.0565 23.9971C21.0565 23.6498 21.017 23.3117 20.9422 22.9871L20.9329 22.9595C20.8759 22.7914 20.8116 22.6264 20.7404 22.4649C20.7279 22.4366 20.7343 22.4035 20.7567 22.382L22.2095 20.9916C22.2389 20.9639 22.2574 20.9268 22.2618 20.8868L22.4939 18.7878C22.5182 18.5676 22.6852 18.3896 22.9043 18.3502L24.0176 18.1504C24.2129 18.1153 24.3693 17.9691 24.4166 17.7773L24.7137 16.5726C24.7566 16.3986 24.8896 16.2608 25.0626 16.2112L26.2049 15.8834C26.3668 15.8369 26.4946 15.7128 26.5451 15.5529L26.9282 14.3412C26.9755 14.1914 27.0908 14.0725 27.2394 14.0199L28.0401 13.7367C28.2051 13.6784 28.3277 13.5388 28.3637 13.3683L28.6533 11.998C28.7074 11.7417 28.5109 11.5007 28.2477 11.5007C28.139 11.5007 28.0347 11.5432 27.9572 11.6191L20.1873 19.2212L19.0987 20.2834C19.0968 20.2852 19.0938 20.2855 19.0916 20.284C18.3637 19.7862 17.4822 19.4949 16.5323 19.4949C14.0336 19.4949 12.0081 21.5106 12.0081 23.9971C12.0081 26.4836 14.0336 28.4993 16.5323 28.4993C19.0309 28.4993 21.0565 26.4836 21.0565 23.9971Z" fill="#4360DF"/>
</svg>
